X:1
T:Korobochka
L:1/8
M:2/4
I:linebreak $
K:Cmin
V:1 treble 
V:1
 GGDE | F2 ED | CCCE | G2 FE | G3 A | GFED | C2 C2 | C4 |: F3 A | c2 BA | GGGA | G2 FE |$ G3 A | %13
 GFED | C2 C2 | C z3 |] %16
